X:4022
T:Dance To Your Daddy
R:Waltz
C:Trad.
O:England, Northumberland
Z:Paul Hardy's Session Tunebook 2015 (see www.paulhardy.net). Creative Commons cc by-nc-sa licenced.
M:3/4
L:1/8
Q:1/4=120
K:D
"D"d2 dB AF|("A"Ee) ed cA|"D"d2 dB AF|"A"Ad "A7"dc "D"d2|"D"dc BA Bd|"A"Be ed cA|"D"dc BA Bd|"A"Ad "A7"dc "D"d2||
"D"f2 fe fa|"A"e2 ed ce|"D"f2 fe fa|("A"Ad) "A7"dc "D"d2|"D"f2 fe fa|"A"e2 ed ce|"D"f2 fe fa|("A"Ad) "A7"dc "D"d2|]

